X: 236
T: A Short Time
C: Teton Sioux band 1911-1914
N: Derived from sioux231.krn
O: South Dakota, U.S.A.
N: Teton Sioux Music by Frances Densmore, 1918
Z: transcribed to **kern format by Craig Sapp
L: 1/16
M: 2/4
Q: 1/4=58
K: D clef=bass
%%linebreak <none>
F4F3 E [I:setbarnb 2]| 
E2< D2D4 ||  
[M:3/4]D4D6F E ||  
[M:2/4]E2< D2B,4 | 
(3B, B, A, F,2 (3B,2 B,2 B,2 | 
B, B, B, A,2< F,2 F, | 
F,8 | 
F,8 ||  
[M:3/4]B,2< D2 D2< D2D4 | 
F< E E< D D2< B,2 B,3 A, ||  
[M:2/4]F,2< B,2 B, B,3 | 
B,2< A,2 F,3 F, | 
F,8 | 
F,4z4 |]  



